public/img/cow.svg

<?xml version="1.0" encoding="utf-8"?>
<!-- Generator: Adobe Illustrator 23.0.6, SVG Export Plug-In . SVG Version: 6.00 Build 0)  -->
<svg version="1.1" id="Layer_1" xmlns="http://www.w3.org/2000/svg" xmlns:xlink="http://www.w3.org/1999/xlink" x="0px" y="0px"
	 viewBox="0 0 333 416.2" style="enable-background:new 0 0 333 416.2;" xml:space="preserve">
<style type="text/css">
	.st0{fill-rule:evenodd;clip-rule:evenodd;}
</style>
<g>
	<path class="st0" d="M231.5,154.5c29-18,49-50,26-80c9,36-9,56-43,62C210.5,138.5,224.5,158.5,231.5,154.5z M188.5,185.5
		c4,0,8,3,8,7s-4,7-8,7s-7-3-7-7S184.5,185.5,188.5,185.5z M143.5,185.5c4,0,7,3,7,7s-3,7-7,7s-7-3-7-7S139.5,185.5,143.5,185.5z
		 M111.5,125.5c3-2,6-4,9-6c-6-6-22-7-22-7c0-1,15-9,23-9c2-4-12-17-12-17s20-1,25,4c3-3,9-25,9-21c3,0,11,10,14,16c6,0,15-3,19-13
		c4,1,5,6,6,21c3-5,24-15,31-12l-18,24c0,0,17-8,30-4c-8,8-17,8-22,15c2,0,12,1,18,3c-4,3-6,6-9,8c32-6,52-26,24-80
		c52,19,54,81,7,110c28-6,51-1,70,16c-24,21-54,24-90,5c6,22,9,46,10,70c49,17,74,72,4,95c-15,19-42,21-71,21c-30,0-56-2-72-21
		c-69-23-45-78,4-95c1-24,4-48,10-70c-36,19-65,16-89-5c18-17,41-22,69-16c-46-29-45-91,7-110C70.5,96.5,84.5,117.5,111.5,125.5z
		 M100.5,154.5c-28-18-49-50-26-80c-9,36,10,56,44,62C121.5,138.5,107.5,158.5,100.5,154.5z M120.5,283.5c-6,0-12,6-13,13
		c-2,7,2,12,8,12c5,0,11-5,13-12C129.5,289.5,126.5,283.5,120.5,283.5z M145.5,159.5c-11,0-21,12-22,26c-1,15,7,26,18,26
		s21-11,22-26C164.5,171.5,156.5,159.5,145.5,159.5z M103.5,170.5c-19,1-47-3-68,3C57.5,158.5,79.5,165.5,103.5,170.5z M166.5,250.5
		c-41,0-109,15-104,51c0,20,23,30,39,35c17,20,41,19,65,19s48,1,64-19c17-5,39-15,40-35C274.5,265.5,207.5,250.5,166.5,250.5z
		 M211.5,283.5c6,0,12,6,13,13c2,7-2,12-7,12c-6,0-12-5-13-12C202.5,289.5,206.5,283.5,211.5,283.5z M186.5,159.5c11,0,21,12,22,26
		c2,15-6,26-17,26s-21-11-23-26C167.5,171.5,175.5,159.5,186.5,159.5z M228.5,170.5c20,1,47-3,69,3
		C274.5,158.5,252.5,165.5,228.5,170.5z"/>
</g>
</svg>

<svg enable-background="new 0 0 333 416.2" viewBox="0 0 333 416.2" xmlns="http://www.w3.org/2000/svg"><path clip-rule="evenodd" d="m231.5 154.5c29-18 49-50 26-80 9 36-9 56-43 62-4 2 10 22 17 18zm-43 31c4 0 8 3 8 7s-4 7-8 7-7-3-7-7 3-7 7-7zm-45 0c4 0 7 3 7 7s-3 7-7 7-7-3-7-7 3-7 7-7zm-32-60c3-2 6-4 9-6-6-6-22-7-22-7 0-1 15-9 23-9 2-4-12-17-12-17s20-1 25 4c3-3 9-25 9-21 3 0 11 10 14 16 6 0 15-3 19-13 4 1 5 6 6 21 3-5 24-15 31-12l-18 24s17-8 30-4c-8 8-17 8-22 15 2 0 12 1 18 3-4 3-6 6-9 8 32-6 52-26 24-80 52 19 54 81 7 110 28-6 51-1 70 16-24 21-54 24-90 5 6 22 9 46 10 70 49 17 74 72 4 95-15 19-42 21-71 21-30 0-56-2-72-21-69-23-45-78 4-95 1-24 4-48 10-70-36 19-65 16-89-5 18-17 41-22 69-16-46-29-45-91 7-110-25 49-11 70 16 78zm-11 29c-28-18-49-50-26-80-9 36 10 56 44 62 3 2-11 22-18 18zm20 129c-6 0-12 6-13 13-2 7 2 12 8 12 5 0 11-5 13-12 1-7-2-13-8-13zm25-124c-11 0-21 12-22 26-1 15 7 26 18 26s21-11 22-26c1-14-7-26-18-26zm-42 11c-19 1-47-3-68 3 22-15 44-8 68-3zm63 80c-41 0-109 15-104 51 0 20 23 30 39 35 17 20 41 19 65 19s48 1 64-19c17-5 39-15 40-35 4-36-63-51-104-51zm45 33c6 0 12 6 13 13 2 7-2 12-7 12-6 0-12-5-13-12-2-7 2-13 7-13zm-25-124c11 0 21 12 22 26 2 15-6 26-17 26s-21-11-23-26c-1-14 7-26 18-26zm42 11c20 1 47-3 69 3-23-15-45-8-69-3z" fill-rule="evenodd"/></svg>
